X:1
T:Fisherman's Favorite
R:Reel
M:C|
%%printtempo 0
Q:180
K:D
AF|\
"D"DFAD "G"GBAG|"D"FAde fdA2|"A"gAfA eAdf|edcB AGFE|
"D"DFAD "G"GBAG|"D"FAde fdA2|"A"gAfA eAce|"D"defe d2:|
|:cd|\
"A"e2AA "D"f2AA|"G"gAfA "A"e2AA|"G"gAfA "D"e2df|"A"edcB AGFE|
"D"DFAD "G"GBAG|"D"FAde fdA2|"A"gAfA eAce|"D"defe d2|]
